source/images/gridiron2/mdsave.svg

<svg xmlns="http://www.w3.org/2000/svg" width="214" height="172" viewBox="0 0 214 172">
  <g fill="none" fill-rule="evenodd">
    <g fill="#1F5F87" transform="translate(199 156.25)">
      <path d="M4.896,3.3408 L8.1408,3.3408 C9.13920499,3.3408 9.8783976,3.53919802 10.3584,3.936 C10.8384024,4.33280198 11.0784,4.93439597 11.0784,5.7408 C11.0784,6.49600378 10.8672021,7.04959824 10.4448,7.4016 C10.0223979,7.75360176 9.49760314,7.96159968 8.8704,8.0256 L11.2704,11.7312 L9.8688,11.7312 L7.584,8.1216 L6.2016,8.1216 L6.2016,11.7312 L4.896,11.7312 L4.896,3.3408 Z M6.2016,7.0656 L7.5648,7.0656 C7.85920147,7.0656 8.13759869,7.0560001 8.4,7.0368 C8.66240131,7.0175999 8.89599898,6.96320045 9.1008,6.8736 C9.30560102,6.78399955 9.46879939,6.64640093 9.5904,6.4608 C9.71200061,6.27519907 9.7728,6.01600166 9.7728,5.6832 C9.7728,5.40159859 9.71840054,5.17760083 9.6096,5.0112 C9.50079946,4.84479917 9.36000086,4.71680045 9.1872,4.6272 C9.01439914,4.53759955 8.81600112,4.47680016 8.592,4.4448 C8.36799888,4.41279984 8.14720109,4.3968 7.9296,4.3968 L6.2016,4.3968 L6.2016,7.0656 Z"/>
      <path d="M0.4608,7.5072 C0.4608,6.49599494 0.65279808,5.55520435 1.0368,4.6848 C1.42080192,3.81439565 1.9423967,3.0592032 2.6016,2.4192 C3.2608033,1.7791968 4.02879562,1.27680182 4.9056,0.912 C5.78240438,0.547198176 6.71359507,0.3648 7.6992,0.3648 C8.68480493,0.3648 9.61279565,0.547198176 10.4832,0.912 C11.3536044,1.27680182 12.1151967,1.7791968 12.768,2.4192 C13.4208033,3.0592032 13.9391981,3.81439565 14.3232,4.6848 C14.7072019,5.55520435 14.8992,6.49599494 14.8992,7.5072 C14.8992,8.54400518 14.7072019,9.50079562 14.3232,10.3776 C13.9391981,11.2544044 13.4208033,12.0159968 12.768,12.6624 C12.1151967,13.3088032 11.3536044,13.8111982 10.4832,14.1696 C9.61279565,14.5280018 8.68480493,14.7072 7.6992,14.7072 C6.71359507,14.7072 5.78240438,14.5280018 4.9056,14.1696 C4.02879562,13.8111982 3.2608033,13.3088032 2.6016,12.6624 C1.9423967,12.0159968 1.42080192,11.2544044 1.0368,10.3776 C0.65279808,9.50079562 0.4608,8.54400518 0.4608,7.5072 Z M1.7664,7.5072 C1.7664,8.39040442 1.9167985,9.20639626 2.2176,9.9552 C2.5184015,10.7040037 2.93439734,11.3535972 3.4656,11.904 C3.99680266,12.4544028 4.62399638,12.8863984 5.3472,13.2 C6.07040362,13.5136016 6.85439578,13.6704 7.6992,13.6704 C8.53120416,13.6704 9.30559642,13.5136016 10.0224,13.2 C10.7392036,12.8863984 11.3631973,12.4544028 11.8944,11.904 C12.4256027,11.3535972 12.8415985,10.7040037 13.1424,9.9552 C13.4432015,9.20639626 13.5936,8.39040442 13.5936,7.5072 C13.5936,6.64959571 13.4432015,5.84960371 13.1424,5.1072 C12.8415985,4.36479629 12.4256027,3.72160272 11.8944,3.1776 C11.3631973,2.63359728 10.7392036,2.20480157 10.0224,1.8912 C9.30559642,1.57759843 8.53120416,1.4208 7.6992,1.4208 C6.85439578,1.4208 6.07040362,1.57759843 5.3472,1.8912 C4.62399638,2.20480157 3.99680266,2.63359728 3.4656,3.1776 C2.93439734,3.72160272 2.5184015,4.36479629 2.2176,5.1072 C1.9167985,5.84960371 1.7664,6.64959571 1.7664,7.5072 Z"/>
    </g>
    <path fill="#1F5F87" d="M22.4625624,138.458123 C26.345,140.011098 30.088723,141.924556 33.6938436,144.198555 C37.2989642,146.472554 39.0460349,150.160815 38.9351082,155.263447 C38.9351082,159.811446 37.1603062,163.5829 33.6106489,166.577923 C30.0609917,169.572946 25.6239867,171.070436 20.2995008,171.070436 C16.6389168,171.292289 13.0615815,170.682201 9.56738769,169.240153 C6.07319384,167.798104 3.05048419,165.74599 0.499168053,163.083747 L0,162.418189 L4.82529118,155.429837 L5.82362729,156.760951 C7.82030948,158.53578 10.0942745,159.950075 12.6455907,161.00388 C15.1969068,162.057684 17.8036473,162.584579 20.4658902,162.584579 C22.684426,162.584579 24.7920033,162.029953 26.7886855,160.920685 C28.7853677,159.811417 29.7836938,157.92569 29.7836938,155.263447 C29.7836938,153.044911 28.6744426,151.325572 26.4559068,150.105377 C24.237371,148.885183 21.6306306,147.665006 18.6356073,146.444812 C14.6422429,144.891837 10.8707887,142.950647 7.32113145,140.621184 C3.77147421,138.291722 1.99667221,134.631193 1.99667221,129.639487 C1.99667221,124.980562 3.77147421,121.209108 7.32113145,118.325011 C10.8707887,115.440915 15.4187188,113.998888 20.9650582,113.998888 C26.6223245,113.998888 30.7820166,114.969483 33.4442596,116.910702 C36.1065025,118.851921 37.4930666,119.877978 37.6039933,119.988905 L38.1031614,120.488073 L33.7770383,127.809204 L32.7787022,126.977257 C31.0038735,125.424282 29.0626839,124.259569 26.9550749,123.483081 C24.8474659,122.706594 22.684426,122.373818 20.4658902,122.484745 C19.3566223,122.484745 17.554089,122.845252 15.0582363,123.566276 C12.5623835,124.2873 11.3144759,126.311683 11.3144759,129.639487 C11.3144759,131.858023 12.4514584,133.577362 14.7254576,134.797557 C16.9994567,136.017752 19.5784659,137.237928 22.4625624,138.458123 Z M80.1996672,143.283414 L78.202995,143.283414 C72.8785092,143.283414 67.6927596,143.893502 62.6455907,145.113697 C57.5984218,146.333891 55.0748752,149.32887 55.0748752,154.098722 C55.0748752,156.095404 55.9345449,158.064325 57.6539101,160.005544 C59.3732754,161.946762 62.0077471,162.917357 65.5574043,162.917357 C69.8835491,162.917357 73.4054218,160.948436 76.1231281,157.010535 C78.8408344,153.072634 80.1996672,148.885211 80.1996672,144.448139 L80.1996672,143.283414 Z M68.8851913,113.998888 C75.5407987,113.998888 80.6433544,115.829153 84.1930116,119.489737 C87.7426689,123.150321 89.5174709,128.419264 89.5174709,135.296725 L89.5174709,169.406542 L80.6988353,169.406542 L80.6988353,162.418189 C78.8130799,165.080432 76.4281897,167.132547 73.5440932,168.574595 C70.6599967,170.016644 67.5540932,170.737657 64.2262895,170.737657 C59.789218,170.737657 55.6017945,169.323361 51.6638935,166.494728 C47.7259925,163.666095 45.7570715,159.534134 45.7570715,154.098722 C45.7570715,149.32887 47.088173,145.640609 49.750416,143.03383 C52.4126589,140.42705 55.5185624,138.541323 59.0682196,137.376592 C62.6178769,136.211861 66.2229434,135.518579 69.8835275,135.296725 C73.5441115,135.074871 76.4281647,134.963946 78.5357737,134.963946 L80.1996672,134.963946 L80.1996672,134.797557 C80.1996672,130.582339 79.2290724,127.448704 77.2878536,125.396559 C75.3466348,123.344413 72.3793877,122.318356 68.3860233,122.318356 C65.8347072,122.429282 63.3666231,122.900714 60.9816972,123.732665 C58.5967712,124.564616 56.4614626,125.701599 54.5757072,127.143647 L53.577371,127.809204 L49.0848586,120.488073 L49.9168053,119.988905 C52.5790483,117.992223 55.5462953,116.467002 58.8186356,115.413198 C62.0909759,114.359393 65.4464609,113.887961 68.8851913,113.998888 Z M119.301165,154.265111 L133.777038,115.163614 L143.261231,115.163614 L122.795341,169.739321 L113.643927,169.739321 L93.1780366,115.163614 L102.995008,115.163614 L117.637271,154.265111 C117.748198,154.597891 117.859123,155.013861 117.97005,155.513031 C118.080977,156.012202 118.191902,156.483634 118.302829,156.927341 C118.413755,156.59456 118.580143,156.206322 118.801997,155.762615 C119.02385,155.318908 119.190238,154.819745 119.301165,154.265111 Z M154.742097,135.962282 L185.024958,136.128672 C184.581251,131.02604 182.945106,127.448704 180.116473,125.396559 C177.287839,123.344413 174.376055,122.318356 171.381032,122.318356 C167.165814,122.207429 163.477553,123.455337 160.31614,126.062116 C157.154726,128.668896 155.29673,131.968918 154.742097,135.962282 Z M171.547421,113.998888 C179.423223,113.998888 185.163598,116.63336 188.768719,121.902382 C192.373839,127.171405 194.231835,132.967243 194.342762,139.290069 C194.342762,139.95563 194.315031,140.759837 194.259567,141.702715 L194.176373,143.117025 L194.176373,143.948971 L154.242928,143.948971 C154.575709,148.718823 156.267317,153.017172 159.317804,156.844146 C162.36829,160.67112 167.054877,162.584579 173.377704,162.584579 C176.039947,162.473652 178.674418,161.891295 181.281198,160.83749 C183.887978,159.783686 186.189674,158.313928 188.186356,156.428173 L189.517471,155.429837 L193.843594,162.917357 L193.344426,163.250136 C190.571256,165.912379 187.465353,167.8813 184.026622,169.156958 C180.587892,170.432616 177.038288,171.070436 173.377704,171.070436 L171.048253,171.070436 C163.505231,170.737655 157.182499,167.798139 152.079867,162.2518 C146.977235,156.70546 144.592344,150.160878 144.925125,142.617856 C144.925125,134.187421 147.42094,127.310063 152.412646,121.985577 C157.404351,116.661091 163.782546,113.998888 171.547421,113.998888 Z"/>
    <g fill="#19BBD4">
      <path d="M56.9871528 65.7711747L91.1813644.52135067 100.665557.52135067 100.665557 91.5363257 113.144759 91.5363257 113.144759 100.521351 78.5357737 100.521351 78.5357737 91.5363257 90.515807 91.5363257 90.515807 29.6394871C90.515807 28.3083656 90.5435383 26.9495329 90.5990017 25.562948 90.6544651 24.1763631 90.848584 22.7620678 91.1813644 21.3200196L90.6821963 21.3200196C90.4603428 22.5402142 90.1552987 23.7881219 89.7670549 25.06378 89.3788111 26.339438 88.9628419 27.5873457 88.5191348 28.8075404L62.8951747 77.7260096 51.0815308 77.7260096 25.4575707 28.8075404C25.0138636 27.5873457 24.5978943 26.3671693 24.2096506 25.1469746 23.8214068 23.92678 23.5163627 22.651141 23.2945092 21.3200196L22.7953411 21.3200196C23.0171947 22.7620678 23.1558511 24.1763631 23.2113145 25.562948 23.2667779 26.9495329 23.2945092 28.3083656 23.2945092 29.6394871L23.2945092 91.5363257 35.4409318 91.5363257 35.4409318 100.521351.665557404 100.521351.665557404 91.5363257 12.9783694 91.5363257 12.9783694 9.50637563.499168053 9.50637563.499168053.52135067 22.4625624.52135067 56.9871528 65.7711747zM200 50.438156C200 56.5391294 199.278987 62.1408482 197.836938 67.2434805 196.39489 72.3461127 194.315044 76.8940428 191.597338 80.8874072 188.879631 84.8807716 185.579609 88.2917192 181.697171 91.1203523 177.814734 93.9489854 173.488654 96.1952192 168.718802 97.8591211 165.280072 98.9683889 161.78593 99.7171335 158.236273 100.105377 154.686616 100.493621 151.137012 100.632277 147.587354 100.521351L118.635607 100.521351 118.635607 9.50637563 106.156406 9.50637563 106.156406.52135067 147.587354.52135067C151.137012.410423881 154.686616.549080287 158.236273.937324047 161.78593 1.32556781 165.280072 2.01884984 168.718802 3.01719094 173.377727 4.45923919 177.648344 6.59454784 181.530782 9.42318095 185.41322 12.2518141 188.713242 15.6904929 191.430948 19.7393207 194.148655 23.7881485 196.256232 28.3915412 197.753744 33.5496369 199.251255 38.7077325 200 44.3371826 200 50.438156zM189.68386 50.6045453C189.68386 41.2866951 187.326701 33.0227733 182.612313 25.812532 177.897924 18.6022908 171.935699 13.9434355 164.725458 11.8358265 161.952288 10.9484122 159.151428 10.3105928 156.322795 9.92234901 153.494162 9.53410525 150.582378 9.39544884 147.587354 9.50637563L129.783694 9.50637563 129.783694 91.5363257 147.587354 91.5363257C150.471451 91.6472525 153.327773 91.5085961 156.156406 91.1203523 158.985039 90.7321086 161.785899 90.0388265 164.559068 89.0404854 171.325602 87.0438032 177.204634 82.4404106 182.196339 75.2301693 187.188045 68.019928 189.68386 59.8114688 189.68386 50.6045453z"/>
    </g>
  </g>
</svg>

<svg xmlns="http://www.w3.org/2000/svg" width="214" height="172"><g fill="none" fill-rule="evenodd"><g fill="#1F5F87"><path d="M203.896 159.59h3.245c.998 0 1.737.2 2.217.596.48.397.72.998.72 1.805 0 .755-.21 1.309-.633 1.66-.423.353-.947.56-1.575.625l2.4 3.705h-1.401l-2.285-3.61h-1.382v3.61h-1.306v-8.39zm1.306 3.726h1.363c.294 0 .573-.01.835-.03.262-.018.496-.073.7-.162a1.1 1.1 0 0 0 .49-.413c.122-.186.183-.445.183-.778 0-.281-.055-.505-.163-.672a1.106 1.106 0 0 0-.423-.384 1.854 1.854 0 0 0-.595-.182 4.68 4.68 0 0 0-.662-.048h-1.728v2.669z"/><path d="M199.46 163.757c0-1.011.193-1.952.577-2.822a7.138 7.138 0 0 1 1.565-2.266 7.296 7.296 0 0 1 5.097-2.054 7.21 7.21 0 0 1 5.069 2.054 7.216 7.216 0 0 1 1.555 2.266c.384.87.576 1.811.576 2.822 0 1.037-.192 1.994-.576 2.87a7.302 7.302 0 0 1-1.555 2.285 7 7 0 0 1-2.285 1.508 7.24 7.24 0 0 1-2.784.537c-.985 0-1.917-.179-2.793-.537a7.083 7.083 0 0 1-2.304-1.508 7.222 7.222 0 0 1-1.565-2.284c-.384-.877-.576-1.834-.576-2.87zm1.306 0c0 .883.15 1.7.452 2.448.3.749.716 1.399 1.248 1.949.53.55 1.158.982 1.881 1.296.723.314 1.507.47 2.352.47.832 0 1.607-.156 2.323-.47a5.81 5.81 0 0 0 1.872-1.296c.532-.55.948-1.2 1.248-1.949.301-.749.452-1.565.452-2.448a6.33 6.33 0 0 0-.452-2.4 5.9 5.9 0 0 0-1.248-1.93 5.885 5.885 0 0 0-1.872-1.286 5.732 5.732 0 0 0-2.323-.47 5.848 5.848 0 0 0-4.233 1.757 5.9 5.9 0 0 0-1.248 1.93 6.33 6.33 0 0 0-.452 2.4z"/></g><path fill="#1F5F87" d="M22.463 138.458a69.173 69.173 0 0 1 11.23 5.74c3.606 2.275 5.353 5.963 5.242 11.065 0 4.548-1.775 8.32-5.324 11.315-3.55 2.995-7.987 4.492-13.311 4.492-3.661.222-7.238-.388-10.733-1.83-3.494-1.442-6.517-3.494-9.068-6.156L0 162.418l4.825-6.988.999 1.331c1.996 1.775 4.27 3.19 6.822 4.243 2.55 1.054 5.158 1.58 7.82 1.58 2.218 0 4.326-.554 6.323-1.663 1.996-1.11 2.995-2.995 2.995-5.658 0-2.218-1.11-3.937-3.328-5.158-2.219-1.22-4.825-2.44-7.82-3.66A60.58 60.58 0 0 1 7.32 140.62c-3.55-2.33-5.324-5.99-5.324-10.982 0-4.658 1.774-8.43 5.324-11.314 3.55-2.884 8.098-4.326 13.644-4.326 5.657 0 9.817.97 12.48 2.912 2.662 1.94 4.048 2.967 4.159 3.078l.5.5-4.327 7.32-.998-.832c-1.775-1.553-3.716-2.717-5.824-3.494a16.24 16.24 0 0 0-6.49-.998c-1.108 0-2.91.36-5.407 1.081-2.496.721-3.744 2.746-3.744 6.073 0 2.219 1.137 3.938 3.411 5.159 2.274 1.22 4.853 2.44 7.738 3.66zm57.737 4.825h-1.997c-5.324 0-10.51.61-15.557 1.83-5.048 1.22-7.571 4.216-7.571 8.986 0 1.996.86 3.965 2.579 5.907 1.72 1.94 4.354 2.911 7.903 2.911 4.327 0 7.848-1.969 10.566-5.906 2.718-3.938 4.077-8.126 4.077-12.563v-1.165zM68.885 114c6.656 0 11.758 1.83 15.308 5.49 3.55 3.661 5.324 8.93 5.324 15.808v34.11H80.7v-6.989c-1.886 2.662-4.27 4.715-7.155 6.157-2.884 1.442-5.99 2.163-9.318 2.163-4.437 0-8.624-1.415-12.562-4.243-3.938-2.829-5.907-6.96-5.907-12.396 0-4.77 1.331-8.458 3.993-11.065a23.71 23.71 0 0 1 9.318-5.657 42.878 42.878 0 0 1 10.816-2.08c3.66-.222 6.544-.333 8.652-.333H80.2v-.166c0-4.216-.97-7.35-2.912-9.401-1.941-2.053-4.909-3.079-8.902-3.079-2.551.111-5.02.583-7.404 1.415-2.385.832-4.52 1.969-6.406 3.41l-.999.666-4.492-7.32.832-.5c2.662-1.997 5.63-3.522 8.902-4.576A29.497 29.497 0 0 1 68.885 114zm50.416 40.266l14.476-39.101h9.484l-20.466 54.575h-9.151l-20.466-54.575h9.817l14.642 39.101c.111.333.222.749.333 1.248.111.5.222.97.333 1.414a9.13 9.13 0 0 1 .499-1.164 5.94 5.94 0 0 0 .5-1.498zm35.441-18.303l30.283.167c-.444-5.103-2.08-8.68-4.909-10.732-2.828-2.053-5.74-3.079-8.735-3.079-4.215-.11-7.903 1.137-11.065 3.744-3.161 2.607-5.02 5.907-5.574 9.9zM171.547 114c7.876 0 13.617 2.634 17.222 7.903 3.605 5.27 5.463 11.065 5.574 17.388 0 .666-.028 1.47-.083 2.413l-.084 1.414v.832h-39.933c.333 4.77 2.024 9.068 5.075 12.895 3.05 3.827 7.737 5.74 14.06 5.74 2.662-.11 5.296-.693 7.903-1.747a21.925 21.925 0 0 0 6.905-4.409l1.331-.998 4.327 7.487-.5.333c-2.773 2.662-5.879 4.631-9.317 5.907a30.38 30.38 0 0 1-10.65 1.913h-2.329c-7.543-.332-13.866-3.272-18.968-8.818-5.103-5.547-7.488-12.091-7.155-19.634 0-8.43 2.496-15.308 7.488-20.632 4.991-5.325 11.37-7.987 19.134-7.987z"/><path d="M56.987 65.771L91.181.521h9.485v91.015h12.479v8.985h-34.61v-8.985h11.98V29.64c0-1.33.029-2.69.084-4.076.055-1.387.25-2.8.582-4.243h-.499a33.366 33.366 0 0 1-.915 3.744 74.002 74.002 0 0 1-1.248 3.744L62.895 77.726H51.082L25.458 28.808a94.98 94.98 0 0 1-1.248-3.661 27.537 27.537 0 0 1-.915-3.827h-.5c.222 1.442.36 2.856.416 4.243.056 1.387.084 2.745.084 4.076v61.897H35.44v8.985H.666v-8.985h12.312V9.506H.5V.521h21.964l34.524 65.25zM200 50.438c0 6.101-.721 11.703-2.163 16.805-1.442 5.103-3.522 9.651-6.24 13.644a41.34 41.34 0 0 1-9.9 10.233c-3.882 2.829-8.208 5.075-12.978 6.74a52.74 52.74 0 0 1-10.483 2.245c-3.55.389-7.099.527-10.649.416h-28.951V9.506h-12.48V.521h41.431c3.55-.11 7.1.028 10.65.416a61.517 61.517 0 0 1 10.482 2.08 43.381 43.381 0 0 1 12.812 6.406c3.882 2.829 7.182 6.267 9.9 10.316 2.718 4.05 4.825 8.653 6.323 13.81C199.25 38.709 200 44.338 200 50.44zm-10.316.167c0-9.318-2.357-17.582-7.072-24.792-4.714-7.21-10.676-11.87-17.887-13.977a49.7 49.7 0 0 0-8.402-1.914 50.418 50.418 0 0 0-8.736-.416h-17.803v82.03h17.803c2.884.111 5.74-.027 8.57-.416a41.357 41.357 0 0 0 8.402-2.08c6.767-1.996 12.646-6.6 17.637-13.81 4.992-7.21 7.488-15.419 7.488-24.625z" fill="#19BBD4"/></g></svg>
